X: 44
T: No_33_Dream_Song_of_a_Whaler.krn
N: Derived from No_33_Dream_Song_of_a_Whaler.krn
%%abc-version 2.0
%%abcx-abcm2ps-target-version 5.9.1 (29 Sep 2008)
%%abc-creator hum2abc beta
%%abcx-conversion-date 2019/03/15 08:36:13
%%humdrum-veritas 3125327303
%%humdrum-veritas-data 4156681846
%%linebreak <none>
%%barnumbers 0
L: 1/8
M: 2/4
K: Ab clef=bass
[K:clef=bass][M:2/4]z2z z/ A,/ | 
A,2z A, ||  
[M:3/4]A,6 | 
(B,A,)G,2z G, ||  
[M:2/4]A,4- | 
A,2B,B, | 
A,2z A, ||  
[M:3/4]A,6 | 
(A,B,)G,2z G, ||  
[M:2/4]A,4- | 
A,2B,B, | 
A,2z A, | 
(A,4 | 
A,4) | 
A,4[K:clef=treble] ||  
!accent!d2z2 |]  



